X: 27763
T: Morning Thrush, The
R: reel
M: 4/4
K: Dmajor
fag|:~f2ef d2AF|dAAF A2fe|d2AF DF~F2|ABdf egfe|
dAAF dAAF|BAFA dADE|EDFA defa|1 afef dfag:|2 afef d2(3ABc||
|:dffe f2af|.g.g.ge .f.f.fe|dcde faaf|~g3f eAce|
dffe fa~a2|bfaf ecdB|ADFA defa|afef d2(3ABc:|
|:dAAF BAAF|DFDF AF~F2|dFAF dF~F2|ABdf e2fe|
dFAF DF~F2|AdfA DF~F2|ABdg f/g/agb|1 afef d2(3ABc:|2 afef d4||

